src/icons/phone.svg

<?xml version="1.0" encoding="UTF-8"?>
<svg width="19px" height="18px" viewBox="0 0 19 18" version="1.1" xmlns="http://www.w3.org/2000/svg" xmlns:xlink="http://www.w3.org/1999/xlink">
    <!-- Generator: Sketch 48.1 (47250) - http://www.bohemiancoding.com/sketch -->
    <title>phone</title>
    <desc>Created with Sketch.</desc>
    <defs></defs>
    <g id="Support" stroke="none" stroke-width="1" fill="none" fill-rule="evenodd" transform="translate(-994.000000, -127.000000)">
        <g transform="translate(974.000000, 47.000000)" fill="#5EABDD" id="phone">
            <g transform="translate(20.000000, 80.000000)">
                <g id="phone-call-copy">
                    <path d="M18.9870269,14.8151147 C18.9266218,14.3825793 18.6630472,14.0096409 18.2639714,13.7919737 L13.576586,11.2352095 C13.0024914,10.9220625 12.2741834,11.013227 11.8055925,11.4571142 L10.8823221,12.3317875 C10.6366392,12.5645776 10.2479456,12.5851819 9.97837971,12.379644 C9.25052304,11.8248043 8.53386922,11.2141775 7.84836176,10.5647135 C7.16285431,9.91528828 6.51830085,9.23639502 5.93259311,8.54681084 C5.71563544,8.29139489 5.73734351,7.92319939 5.9831085,7.69040933 L6.90633787,6.81573605 C7.37488766,6.37188767 7.47124033,5.68199248 7.14061276,5.13799927 L4.44179393,0.697338376 C4.21199197,0.31922947 3.81837405,0.0695671837 3.3618068,0.012341571 C2.90519851,-0.04500067 2.45655122,0.0992685208 2.13088901,0.407789216 L0.739725403,1.72576661 C-0.231228911,2.64565278 -0.246822616,4.32828795 0.695816814,6.46379076 C1.6022214,8.51714838 3.29372796,10.7775601 5.4586676,12.828624 C7.62368931,14.8796491 10.0096902,16.4821217 12.1771741,17.3408169 C13.2867482,17.7803889 14.2803955,18.0000389 15.1193368,18 C15.9847053,18 16.6853961,17.766238 17.1784444,17.2991806 L18.569608,15.9812032 C18.8952292,15.6726825 19.0473909,15.2476502 18.9870269,14.8151147 Z M13.2694721,11.7405598 L17.9568575,14.297324 C18.1886702,14.4237491 18.3417348,14.6403667 18.3767796,14.891584 C18.4062435,15.1024091 18.3484236,15.3100074 18.2173545,15.4772913 L11.9878747,12.1091441 L12.2408621,11.869473 C12.5129722,11.6116856 12.936054,11.5586975 13.2694721,11.7405598 Z M3.28104782,0.590467989 C3.5462639,0.623707051 3.77487582,0.768714887 3.9083251,0.988325951 L6.60714393,5.42898685 C6.79919271,5.74493288 6.74321952,6.14566767 6.47110938,6.40341618 L6.23872215,6.62357151 L2.66390645,0.74150162 C2.81003588,0.638985356 2.98480847,0.583314787 3.1670086,0.583314787 C3.20480281,0.583314787 3.24292532,0.585686229 3.28104782,0.590467989 Z M16.7431339,16.8868219 C15.9717379,17.6176147 14.3940654,17.5869804 12.4146498,16.8027718 C10.3193484,15.9726894 8.00364223,14.4148465 5.89397817,12.4162653 C3.78431411,10.4176452 2.13991695,8.22378936 1.26371491,6.2388148 C0.435894384,4.36354857 0.403599001,2.8689182 1.17499494,2.13808648 L2.20774956,1.1596529 L5.78794098,7.05062542 L5.54783897,7.27808946 C5.0794123,7.72189897 5.03862245,8.42446777 5.45300463,8.91244052 C6.05250049,9.61827491 6.71199107,10.312913 7.41305119,10.9770722 C8.11419339,11.6412703 8.84742578,12.266048 9.59243553,12.8339889 C10.1074381,13.2265597 10.8490419,13.1879558 11.3175917,12.7441074 L11.5366422,12.5365868 L17.7747805,15.909438 L16.7431339,16.8868219 Z" id="Shape" fill-rule="nonzero"></path>
                </g>
            </g>
        </g>
    </g>
</svg>

<?xml version="1.0" encoding="utf-8"?>
<!-- Generator: Adobe Illustrator 21.1.0, SVG Export Plug-In . SVG Version: 6.00 Build 0)  -->
<svg version="1.1" id="Слой_1" xmlns="http://www.w3.org/2000/svg" xmlns:xlink="http://www.w3.org/1999/xlink" x="0px" y="0px"
	 viewBox="0 0 19 18" enable-background="new 0 0 19 18" xml:space="preserve">
<title>phone</title>
<desc>Created with Sketch.</desc>
<g id="Support" transform="translate(-994.000000, -127.000000)">
	<g id="phone" transform="translate(974.000000, 47.000000)">
		<g transform="translate(20.000000, 80.000000)">
			<g id="phone-call-copy">
				<path id="Shape" fill="#5EABDD" d="M19,14.8c-0.1-0.4-0.3-0.8-0.7-1l-4.7-2.6c-0.6-0.3-1.3-0.2-1.8,0.2l-0.9,0.9
					c-0.2,0.2-0.6,0.3-0.9,0c-0.7-0.6-1.4-1.2-2.1-1.8c-0.7-0.6-1.3-1.3-1.9-2C5.7,8.3,5.7,7.9,6,7.7l0.9-0.9
					c0.5-0.4,0.6-1.1,0.2-1.7L4.4,0.7C4.2,0.3,3.8,0.1,3.4,0C2.9,0,2.5,0.1,2.1,0.4L0.7,1.7c-1,0.9-1,2.6,0,4.7
					c0.9,2.1,2.6,4.3,4.8,6.4c2.2,2.1,4.6,3.7,6.7,4.5c1.1,0.4,2.1,0.7,2.9,0.7c0.9,0,1.6-0.2,2.1-0.7l1.4-1.3
					C18.9,15.7,19,15.2,19,14.8z M13.3,11.7l4.7,2.6c0.2,0.1,0.4,0.3,0.4,0.6c0,0.2,0,0.4-0.2,0.6L12,12.1l0.3-0.2
					C12.5,11.6,12.9,11.6,13.3,11.7z M3.3,0.6c0.3,0,0.5,0.2,0.6,0.4l2.7,4.4c0.2,0.3,0.1,0.7-0.1,1L6.2,6.6L2.7,0.7
					C2.8,0.6,3,0.6,3.2,0.6C3.2,0.6,3.2,0.6,3.3,0.6z M16.7,16.9c-0.8,0.7-2.3,0.7-4.3-0.1C10.3,16,8,14.4,5.9,12.4
					c-2.1-2-3.8-4.2-4.6-6.2C0.4,4.4,0.4,2.9,1.2,2.1l1-1l3.6,5.9L5.5,7.3C5.1,7.7,5,8.4,5.5,8.9c0.6,0.7,1.3,1.4,2,2.1
					c0.7,0.7,1.4,1.3,2.2,1.9c0.5,0.4,1.3,0.4,1.7-0.1l0.2-0.2l6.2,3.4L16.7,16.9z"/>
			</g>
		</g>
	</g>
</g>
</svg>
